X:1
T:B. D. Ackley
T:E. E. Hewitt
T:I Know I Shall See Him
%%score { ( 1 2 ) | ( 3 4 ) }
L:1/8
M:6/4
K:C
V:1 treble 
V:2 treble 
V:3 bass 
V:4 bass 
V:1
{/x} G2 | G2 A2 B2 d2 c2 E2 | D2 A2 A2 A4 A2 | B2 D2 E2 F2 E2 D2 | G6- G4 G2 | G2 A2 B2 d2 c2 E2 | %6
w: Some\-|times, to my heart comes a|vi\- sion of joy, When|Je\- sus my Sav\- ior draws|near; * He|gives me the peace that no|
w: How|blest are the mo\- ments when|faith can be\- hold The|foot\- steps of Christ in the|way! * But|O, we look for\- ward to|
w: How|sweet the com\- mun\- ion we|have with Him here; Un\-|seen, yet so pre\- cious is|He; * Some|day, face to face, where there|
 E2 A2 A2 A4 A2 | G2 G2 G2 B2 A2 G2 | c6- c4"^Chorus" c2 | d2 d2 d2 B2 A2 G2 | c6- c4 B2 | %11
w: ill can de\- stroy; His|voice I seem al\- most to|hear. * I|know I shall see Him on|high, * I|
w: rap\- ture un\- told, Where|shin\- eth the sha\- dow\- less|day! * *|||
w: com\- eth no tear, Our|King in His beau\- ty we'll|see. * *|||
 A2 A2 A2 A2 B2 c2 | d6- d4 G2 | G2 A2 B2 c2 d2 e2 | f2 A2 A2 d4[Q:1/4=48]"^Largo" !fermata!f2 | %15
w: know I shall see Him on|high; * When|faith yields to sight in the|land of de\- light, I|
w: ||||
w: ||||
[Q:1/4=120]"^Allegretto" e2 G2 c2 B2[Q:1/4=48]"^Largo" !fermata!e2[Q:1/4=120]"^Allegretto" d2 | %16
w: know I shall see Him on|
w: |
w: |
 c6- c4 |] %17
w: high. *|
w: |
w: |
V:2
 E2 | E2 E2 E2 E2 E2 C2 | C2 D2 D2 D4 D2 | D2 B,2 B,2 B,2 B,2 B,2 | C4 E2 F4 F2 | %5
w: |||||
w: |||||
w: |||||
w: ||||(1) draws near; *|
 E2 E2 E2 E2 E2 C2 | C2 D2 D2 D4 ^D2 | E2 E2 E2 F2 F2 F2 | E6- E4 E2 | F2 F2 F2 F2 F2 F2 | %10
w: |||||
w: ||||* * * * * shall|
w: |||||
w: |||||
 E2 E2 F2 E4 G2 | F2 F2 G2 ^F2 F2 F2 | G2 G2 ^F2 =F4 F2 | E2 F2 F2 G2 G2 G2 | A2 A2 A2 ^F4 G2 | %15
w: |||||
w: see Him on high, *|* * * * * shall|see Him on high; *|||
w: |||||
w: |||||
 G2 E2 E2 F2 G2 F2 | E6- E4 |] %17
w: ||
w: ||
w: ||
w: ||
V:3
 C2 | C2 C2 C2 G,2 G,2 G,2 | A,2 A,2 C2 B,4 A,2 | G,2 G,2 G,2 G,2 G,2 G,2 | G,4 ^A,2 B,4 B,2 | %5
 C2 C2 C2 G,2 G,2 G,2 | A,2 A,2 C2 B,4 C2 | C2 C2 C2 D2 C2 B,2 | [G,C-]6 [G,C]4 C2 | %9
 B,2 B,2 B,2 D2 C2 B,2 | G,2 G,2 A,2 G,4 C2 | C2 C2 ^C2 D2 D2 A,2 | B,2 B,2 C2 B,4 B,2 | %13
 C2 C2 G,2 C2 B,2 C2 | C2 C2 C2 C4 B,2 | C2 C2 C2 D2 C2 G,2 | G,6- G,4 |] %17
V:4
 C,2 | C,2 C,2 C,2 C,2 C,2 C,2 | F,2 F,2 F,2 F,4 F,2 | F,2 [G,,F,]2 [G,,E,]2 [G,,D,]2 G,2 F,2 | %4
 F,2 E,4 ^C,2 D,4 | G,2 C,2 C,2 C,2 C,2 C,2 | C,2 F,2 F,2 F,4 ^F,2 | G,2 G,2 G,2 G,2 G,2 G,2 | %8
 C,6- C,4 C,2 | G,2 G,2 G,2 G,2 G,2 G,2 | C,6- C,4 C,2 | F,2 F,2 E,2 D,2 D,2 D,2 | %12
 G,2 G,2 A,2 G,4 G,2 | C,2 F,2 D,2 E,2 G,2 C2 | F,2 F,2 F,2 D,4 G,2 | G,2 G,2 G,2 G,2 G,2 G,2 | %16
 C,6- C,4 |] %17

